X:3
T:Boer en boerinneke
O:vlaanderen
C:Trad.
Z:Bart Vanhaverbeke 
P:A x 4
L:1/8
M:2/4
K:C
P:A
"G7"dd/e/ d/c/B/d/ | "C"[cGE][cGE][c2G2E2] || "C"[EC][E/C/][F/D/] [GE][G/E/][G/E/] | "Cmin"[cG_E]B/A/ "G"[B/G/D/][B/G/D/][B/G/D/] z/ |"G7"[dBF]d/c/ [BGF]B/B/ | "C"[AEC][AEC][G2E2C2] |
"C"[EC][E/C/][F/D/] [GE][G/E/][G/E/] | "Cmin"[cG_E]B/A/ "G"[B/G/D/][B/G/D/][B/G/D/] z/ |"G7"[dGF]d/e/ [d/F/G/] c/B/A/ | "C"[GE][GE] [G2E2C2] | "G7"[DB,][D/B,/][E/C/] [FD][F/D/][F/D/] | "C"[EC][E/C/][F/D/] [G/E/][G/E/][G/E/] z/ |
"G7"[BFD]B/B/ [BFD]A | "C"[AEC][GEC] [G2E2C2] | "G7"[FD]F/E/ [DB,]D/D/ | "G7"[BFD]B/A/ "C"[G/E/][G/E/][G/E/] z/ |"D"[dA^F]d/c/ "G"[BGD]B/B/ | "D7"[A^FD]B "G7"[G2=F2D2] |
"C"[EC][E/C/][F/D/] [GE][G/E/][G/E/] | "Cmin"[cG_E]B/A/ "G"[B/G/D/][B/G/D/][B/G/D/] z/ | "G7"[dBF]d/e/ d/c/B/d/ | "C"[cGE][cGE][c2G2E2] |]
